Adwaita++-Light/panel/16/cisco-tray-reconnecting.svg

<svg height="16" width="16" xmlns="http://www.w3.org/2000/svg">
  <path d="m8 1a7 7 0 0 0 -6.2128906 3.7871094 7 7 0 0 1 3.2128906-.7871094 7 7 0 0 1 1.2597656.1171875 7 7 0 0 1 1.8476563-3.1113281 7 7 0 0 0 -.1074219-.0058594zm1.4726562.1601562a6 6 0 0 0 -2.2421874 3.2148438 7 7 0 0 1 3.8320312 3.1484375c.371509-.2933315.815667-.4911432 1.304688-.5195313h.001953.001953c.082988-.0045099.165057-.0045099.248047 0 .845809.0445397 1.591093.5558219 1.982421 1.2929688l.330079.6230469a7 7 0 0 0 .068359-.9199219 7 7 0 0 0 -5.5273438-6.8398438zm-4.4726562 3.8398438a6 6 0 0 0 -3.796875 1.359375 7 7 0 0 0 -.203125 1.640625 7 7 0 0 0 7 7 7 7 0 0 0 .5039062-.027344c-.5376811-.765541-.6836432-1.824031-.1992187-2.736328l.390625-.736328a7 7 0 0 1 -2.6953125-5.5 7 7 0 0 1 .0664062-.9003906 6 6 0 0 0 -1.0664062-.0996094zm2.0351562.3632812a6 6 0 0 0 -.0351562.6367188 6 6 0 0 0 2.1699219 4.605469l.1796875-.339844 1.0195316-1.9179688a6 6 0 0 0 -3.3339848-2.984375zm5.3906248 2.6386719a1.4078 1.5301 0 0 0 -1.144531.7636719l-1.046875 1.96875-1.0449219 1.970703a1.4078 1.5301 0 0 0 1.2167969 2.294922h2.09375 2.091797a1.4078 1.5301 0 0 0 1.21875-2.294922l-1.046875-1.970703-1.044922-1.96875a1.4078 1.5301 0 0 0 -1.152344-.7636719 1.4078 1.5301 0 0 0 -.140625 0zm-.425781.9980469h1v3h-1zm0 4h1v1h-1z" fill="#444"/>
</svg>

<svg xmlns="http://www.w3.org/2000/svg" width="16" height="16" version="1.1">
 <defs>
  <style id="current-color-scheme" type="text/css">
   .ColorScheme-Text { color:#444444; } .ColorScheme-Highlight { color:#4285f4; }
  </style>
 </defs>
 <path style="fill:currentColor" class="ColorScheme-Text" d="M 8 1 A 7 7 0 0 0 1.7871094 4.7871094 A 7 7 0 0 1 5 4 A 7 7 0 0 1 6.2597656 4.1171875 A 7 7 0 0 1 8.1074219 1.0058594 A 7 7 0 0 0 8 1 z M 9.4726562 1.1601562 A 6 6 0 0 0 7.2304688 4.375 A 7 7 0 0 1 11.0625 7.5234375 C 11.434009 7.230106 11.878167 7.0322943 12.367188 7.0039062 L 12.369141 7.0039062 L 12.371094 7.0039062 C 12.454082 6.9993963 12.536151 6.9993963 12.619141 7.0039062 C 13.46495 7.0484459 14.210234 7.5597281 14.601562 8.296875 L 14.931641 8.9199219 A 7 7 0 0 0 15 8 A 7 7 0 0 0 9.4726562 1.1601562 z M 5 5 A 6 6 0 0 0 1.203125 6.359375 A 7 7 0 0 0 1 8 A 7 7 0 0 0 8 15 A 7 7 0 0 0 8.5039062 14.972656 C 7.9662251 14.207115 7.820263 13.148625 8.3046875 12.236328 L 8.6953125 11.5 A 7 7 0 0 1 6 6 A 7 7 0 0 1 6.0664062 5.0996094 A 6 6 0 0 0 5 5 z M 7.0351562 5.3632812 A 6 6 0 0 0 7 6 A 6 6 0 0 0 9.1699219 10.605469 L 9.3496094 10.265625 L 10.369141 8.3476562 A 6 6 0 0 0 7.0351562 5.3632812 z M 12.425781 8.0019531 A 1.4078 1.5301 0 0 0 11.28125 8.765625 L 10.234375 10.734375 L 9.1894531 12.705078 A 1.4078 1.5301 0 0 0 10.40625 15 L 12.5 15 L 14.591797 15 A 1.4078 1.5301 0 0 0 15.810547 12.705078 L 14.763672 10.734375 L 13.71875 8.765625 A 1.4078 1.5301 0 0 0 12.566406 8.0019531 A 1.4078 1.5301 0 0 0 12.425781 8.0019531 z M 12 9 L 13 9 L 13 12 L 12 12 L 12 9 z M 12 13 L 13 13 L 13 14 L 12 14 L 12 13 z"/>
</svg>
